src/assets/sbx1r.svg

<?xml version="1.0" encoding="UTF-8"?>
<svg xmlns="http://www.w3.org/2000/svg" xmlns:xlink="http://www.w3.org/1999/xlink" width="362.83pt" height="76.54pt" viewBox="0 0 362.83 76.54" version="1.1">
<defs>
<g>
<symbol overflow="visible" id="glyph0-0">
<path style="stroke:none;" d=""/>
</symbol>
<symbol overflow="visible" id="glyph0-1">
<path style="stroke:none;" d="M 17.59375 -7.171875 C 17.59375 -6.023438 17.367188 -4.984375 16.921875 -4.046875 C 16.484375 -3.117188 15.878906 -2.316406 15.109375 -1.640625 C 14.335938 -0.972656 13.4375 -0.457031 12.40625 -0.09375 C 11.382812 0.269531 10.28125 0.453125 9.09375 0.453125 C 7.601562 0.453125 6.191406 0.226562 4.859375 -0.21875 C 3.535156 -0.675781 2.269531 -1.3125 1.0625 -2.125 L 2.078125 -3.984375 C 3.222656 -3.222656 4.394531 -2.613281 5.59375 -2.15625 C 6.789062 -1.707031 8.019531 -1.484375 9.28125 -1.484375 C 10.195312 -1.484375 11.03125 -1.617188 11.78125 -1.890625 C 12.539062 -2.171875 13.191406 -2.550781 13.734375 -3.03125 C 14.285156 -3.507812 14.703125 -4.082031 14.984375 -4.75 C 15.273438 -5.425781 15.421875 -6.144531 15.421875 -6.90625 C 15.421875 -7.707031 15.285156 -8.40625 15.015625 -9 C 14.753906 -9.59375 14.363281 -10.132812 13.84375 -10.625 C 13.332031 -11.125 12.695312 -11.582031 11.9375 -12 C 11.175781 -12.414062 10.304688 -12.851562 9.328125 -13.3125 C 8.265625 -13.789062 7.300781 -14.273438 6.4375 -14.765625 C 5.582031 -15.253906 4.859375 -15.800781 4.265625 -16.40625 C 3.671875 -17.019531 3.210938 -17.695312 2.890625 -18.4375 C 2.578125 -19.1875 2.421875 -20.039062 2.421875 -21 C 2.421875 -22.007812 2.625 -22.945312 3.03125 -23.8125 C 3.4375 -24.6875 4.003906 -25.453125 4.734375 -26.109375 C 5.472656 -26.773438 6.351562 -27.296875 7.375 -27.671875 C 8.394531 -28.046875 9.523438 -28.234375 10.765625 -28.234375 C 11.972656 -28.234375 13.113281 -28.054688 14.1875 -27.703125 C 15.269531 -27.347656 16.210938 -26.894531 17.015625 -26.34375 L 16 -24.5625 C 15.289062 -25.070312 14.472656 -25.488281 13.546875 -25.8125 C 12.628906 -26.144531 11.640625 -26.3125 10.578125 -26.3125 C 9.640625 -26.3125 8.796875 -26.175781 8.046875 -25.90625 C 7.304688 -25.644531 6.675781 -25.28125 6.15625 -24.8125 C 5.632812 -24.34375 5.234375 -23.796875 4.953125 -23.171875 C 4.679688 -22.554688 4.546875 -21.882812 4.546875 -21.15625 C 4.546875 -20.394531 4.679688 -19.726562 4.953125 -19.15625 C 5.234375 -18.59375 5.628906 -18.078125 6.140625 -17.609375 C 6.648438 -17.140625 7.253906 -16.707031 7.953125 -16.3125 C 8.660156 -15.925781 9.429688 -15.539062 10.265625 -15.15625 C 11.453125 -14.625 12.5 -14.09375 13.40625 -13.5625 C 14.320312 -13.039062 15.085938 -12.46875 15.703125 -11.84375 C 16.328125 -11.226562 16.796875 -10.539062 17.109375 -9.78125 C 17.429688 -9.019531 17.59375 -8.148438 17.59375 -7.171875 Z M 17.59375 -7.171875 "/>
</symbol>
<symbol overflow="visible" id="glyph0-2">
<path style="stroke:none;" d="M 17.4375 -19.03125 C 17.4375 -19.96875 17.257812 -20.859375 16.90625 -21.703125 C 16.550781 -22.546875 16.03125 -23.289062 15.34375 -23.9375 C 14.664062 -24.582031 13.816406 -25.097656 12.796875 -25.484375 C 11.773438 -25.878906 10.59375 -26.078125 9.25 -26.078125 C 8.59375 -26.078125 7.9375 -26.050781 7.28125 -26 C 6.625 -25.945312 6.003906 -25.882812 5.421875 -25.8125 L 5.421875 -11.78125 C 5.921875 -11.738281 6.476562 -11.6875 7.09375 -11.625 C 7.71875 -11.5625 8.320312 -11.53125 8.90625 -11.53125 C 10.300781 -11.53125 11.523438 -11.71875 12.578125 -12.09375 C 13.640625 -12.46875 14.53125 -12.984375 15.25 -13.640625 C 15.976562 -14.296875 16.523438 -15.085938 16.890625 -16.015625 C 17.253906 -16.941406 17.4375 -17.945312 17.4375 -19.03125 Z M 19.71875 -19.140625 C 19.71875 -17.753906 19.46875 -16.476562 18.96875 -15.3125 C 18.476562 -14.15625 17.765625 -13.15625 16.828125 -12.3125 C 15.890625 -11.476562 14.75 -10.828125 13.40625 -10.359375 C 12.070312 -9.898438 10.546875 -9.671875 8.828125 -9.671875 C 8.328125 -9.671875 7.753906 -9.691406 7.109375 -9.734375 C 6.460938 -9.785156 5.898438 -9.835938 5.421875 -9.890625 L 5.421875 0 L 3.296875 0 L 3.296875 -27.59375 C 4.203125 -27.71875 5.125 -27.8125 6.0625 -27.875 C 7 -27.9375 7.984375 -27.96875 9.015625 -27.96875 C 10.816406 -27.96875 12.382812 -27.726562 13.71875 -27.25 C 15.0625 -26.769531 16.175781 -26.125 17.0625 -25.3125 C 17.945312 -24.507812 18.609375 -23.578125 19.046875 -22.515625 C 19.492188 -21.453125 19.71875 -20.328125 19.71875 -19.140625 Z M 19.71875 -19.140625 "/>
</symbol>
<symbol overflow="visible" id="glyph0-3">
<path style="stroke:none;" d="M 17.515625 -19.640625 C 17.515625 -20.566406 17.34375 -21.421875 17 -22.203125 C 16.65625 -22.992188 16.140625 -23.671875 15.453125 -24.234375 C 14.773438 -24.804688 13.9375 -25.253906 12.9375 -25.578125 C 11.945312 -25.910156 10.789062 -26.078125 9.46875 -26.078125 C 8.132812 -26.078125 6.796875 -25.960938 5.453125 -25.734375 L 5.453125 -13.1875 C 5.929688 -13.132812 6.488281 -13.082031 7.125 -13.03125 C 7.757812 -12.988281 8.367188 -12.96875 8.953125 -12.96875 C 11.753906 -12.96875 13.878906 -13.566406 15.328125 -14.765625 C 16.785156 -15.960938 17.515625 -17.585938 17.515625 -19.640625 Z M 18.84375 0 L 11.265625 -11.296875 C 10.878906 -11.242188 10.484375 -11.203125 10.078125 -11.171875 C 9.671875 -11.148438 9.253906 -11.140625 8.828125 -11.140625 C 8.328125 -11.140625 7.753906 -11.148438 7.109375 -11.171875 C 6.460938 -11.203125 5.910156 -11.242188 5.453125 -11.296875 L 5.453125 0 L 3.296875 0 L 3.296875 -27.515625 C 4.335938 -27.640625 5.316406 -27.742188 6.234375 -27.828125 C 7.160156 -27.921875 8.164062 -27.96875 9.25 -27.96875 C 10.96875 -27.96875 12.484375 -27.765625 13.796875 -27.359375 C 15.109375 -26.960938 16.207031 -26.398438 17.09375 -25.671875 C 17.976562 -24.953125 18.644531 -24.085938 19.09375 -23.078125 C 19.550781 -22.066406 19.78125 -20.957031 19.78125 -19.75 C 19.78125 -17.851562 19.222656 -16.195312 18.109375 -14.78125 C 17.003906 -13.363281 15.414062 -12.351562 13.34375 -11.75 L 21.421875 0 Z M 18.84375 0 "/>
</symbol>
<symbol overflow="visible" id="glyph0-4">
<path style="stroke:none;" d="M 15.546875 -30.78125 C 15.546875 -31.507812 15.320312 -32.101562 14.875 -32.5625 C 14.4375 -33.019531 13.875 -33.25 13.1875 -33.25 C 12.53125 -33.25 11.976562 -33.019531 11.53125 -32.5625 C 11.09375 -32.101562 10.875 -31.507812 10.875 -30.78125 C 10.875 -30.050781 11.09375 -29.453125 11.53125 -28.984375 C 11.976562 -28.515625 12.53125 -28.28125 13.1875 -28.28125 C 13.875 -28.28125 14.4375 -28.515625 14.875 -28.984375 C 15.320312 -29.453125 15.546875 -30.050781 15.546875 -30.78125 Z M 13.15625 -23.921875 L 7.421875 -10.3125 L 18.875 -10.3125 Z M 17.09375 -30.734375 C 17.09375 -29.773438 16.800781 -28.945312 16.21875 -28.25 C 15.644531 -27.5625 14.875 -27.128906 13.90625 -26.953125 L 25.546875 0 L 23.28125 0 L 19.671875 -8.484375 L 6.640625 -8.484375 L 3.078125 0 L 0.828125 0 L 12.4375 -26.984375 C 11.476562 -27.140625 10.710938 -27.570312 10.140625 -28.28125 C 9.566406 -28.988281 9.28125 -29.804688 9.28125 -30.734375 C 9.28125 -31.796875 9.640625 -32.703125 10.359375 -33.453125 C 11.085938 -34.203125 12.03125 -34.578125 13.1875 -34.578125 C 14.375 -34.578125 15.320312 -34.203125 16.03125 -33.453125 C 16.738281 -32.703125 17.09375 -31.796875 17.09375 -30.734375 Z M 17.09375 -30.734375 "/>
</symbol>
<symbol overflow="visible" id="glyph0-5">
<path style="stroke:none;" d="M 18.875 0 L 5.421875 -13.71875 L 5.421875 0 L 3.296875 0 L 3.296875 -27.78125 L 5.421875 -27.78125 L 5.421875 -14.859375 L 18.421875 -27.78125 L 21.15625 -27.78125 L 7.46875 -14.296875 L 21.6875 0 Z M 18.875 0 "/>
</symbol>
<symbol overflow="visible" id="glyph0-6">
<path style="stroke:none;" d="M 17.703125 -7.65625 C 17.703125 -9.351562 16.976562 -10.742188 15.53125 -11.828125 C 14.09375 -12.910156 11.921875 -13.453125 9.015625 -13.453125 C 8.515625 -13.453125 7.9375 -13.453125 7.28125 -13.453125 C 6.625 -13.453125 6.003906 -13.425781 5.421875 -13.375 L 5.421875 -1.9375 C 6.097656 -1.832031 6.832031 -1.75 7.625 -1.6875 C 8.425781 -1.625 9.21875 -1.59375 10 -1.59375 C 11.269531 -1.59375 12.382812 -1.75 13.34375 -2.0625 C 14.300781 -2.382812 15.101562 -2.816406 15.75 -3.359375 C 16.394531 -3.898438 16.878906 -4.535156 17.203125 -5.265625 C 17.535156 -6.003906 17.703125 -6.800781 17.703125 -7.65625 Z M 17.0625 -20.765625 C 17.0625 -22.359375 16.457031 -23.664062 15.25 -24.6875 C 14.050781 -25.71875 12.191406 -26.234375 9.671875 -26.234375 C 8.171875 -26.234375 6.753906 -26.117188 5.421875 -25.890625 L 5.421875 -15.234375 C 6.003906 -15.179688 6.578125 -15.15625 7.140625 -15.15625 C 7.710938 -15.15625 8.289062 -15.15625 8.875 -15.15625 C 10.289062 -15.15625 11.507812 -15.300781 12.53125 -15.59375 C 13.550781 -15.882812 14.394531 -16.28125 15.0625 -16.78125 C 15.738281 -17.289062 16.238281 -17.882812 16.5625 -18.5625 C 16.894531 -19.25 17.0625 -19.984375 17.0625 -20.765625 Z M 19.90625 -7.546875 C 19.90625 -6.535156 19.6875 -5.554688 19.25 -4.609375 C 18.820312 -3.660156 18.1875 -2.828125 17.34375 -2.109375 C 16.5 -1.390625 15.441406 -0.8125 14.171875 -0.375 C 12.910156 0.0507812 11.445312 0.265625 9.78125 0.265625 C 8.644531 0.265625 7.539062 0.21875 6.46875 0.125 C 5.394531 0.0390625 4.335938 -0.0625 3.296875 -0.1875 L 3.296875 -27.59375 C 4.335938 -27.71875 5.347656 -27.820312 6.328125 -27.90625 C 7.316406 -28 8.378906 -28.046875 9.515625 -28.046875 C 11.179688 -28.046875 12.617188 -27.851562 13.828125 -27.46875 C 15.046875 -27.09375 16.050781 -26.582031 16.84375 -25.9375 C 17.644531 -25.300781 18.238281 -24.550781 18.625 -23.6875 C 19.019531 -22.832031 19.21875 -21.9375 19.21875 -21 C 19.21875 -19.332031 18.726562 -17.941406 17.75 -16.828125 C 16.78125 -15.710938 15.347656 -14.90625 13.453125 -14.40625 C 15.679688 -14 17.3125 -13.171875 18.34375 -11.921875 C 19.382812 -10.671875 19.90625 -9.210938 19.90625 -7.546875 Z M 19.90625 -7.546875 "/>
</symbol>
<symbol overflow="visible" id="glyph0-7">
<path style="stroke:none;" d="M 13.15625 -23.921875 L 7.421875 -10.3125 L 18.875 -10.3125 Z M 23.28125 0 L 19.671875 -8.484375 L 6.640625 -8.484375 L 3.078125 0 L 0.828125 0 L 13 -28.234375 L 13.375 -28.234375 L 25.546875 0 Z M 23.28125 0 "/>
</symbol>
<symbol overflow="visible" id="glyph0-8">
<path style="stroke:none;" d="M 23.875 0.421875 L 5.375 -23.15625 L 5.375 0 L 3.296875 0 L 3.296875 -28.09375 L 3.796875 -28.203125 L 22.140625 -4.890625 L 22.140625 -27.78125 L 24.265625 -27.78125 L 24.265625 0.34375 Z M 23.875 0.421875 "/>
</symbol>
<symbol overflow="visible" id="glyph0-9">
<path style="stroke:none;" d="M 3.296875 0 L 3.296875 -27.78125 L 18.984375 -27.78125 L 18.984375 -25.890625 L 5.421875 -25.890625 L 5.421875 -15.046875 L 17.671875 -15.046875 L 17.671875 -13.15625 L 5.421875 -13.15625 L 5.421875 -1.9375 L 18.984375 -1.9375 L 18.984375 0 Z M 3.296875 0 "/>
</symbol>
<symbol overflow="visible" id="glyph0-10">
<path style="stroke:none;" d="M 12.734375 -25.890625 L 12.734375 0 L 10.578125 0 L 10.578125 -25.890625 L 1.140625 -25.890625 L 1.140625 -27.78125 L 22.140625 -27.78125 L 22.140625 -25.890625 Z M 12.734375 -25.890625 "/>
</symbol>
<symbol overflow="visible" id="glyph0-11">
<path style="stroke:none;" d="M 21.71875 0 L 12.8125 -12.46875 L 3.90625 0 L 1.40625 0 L 11.671875 -13.984375 L 1.546875 -27.78125 L 4.125 -27.78125 L 12.84375 -15.546875 L 21.609375 -27.78125 L 24.109375 -27.78125 L 14.03125 -14.03125 L 24.265625 0 Z M 21.71875 0 "/>
</symbol>
</g>
</defs>
<g id="surface1">
<g style="fill:rgb(13.729858%,12.159729%,12.548828%);fill-opacity:1;">
  <use xlink:href="#glyph0-1" x="19.2754" y="52.0181"/>
</g>
<g style="fill:rgb(13.729858%,12.159729%,12.548828%);fill-opacity:1;">
  <use xlink:href="#glyph0-2" x="36.97878" y="52.0181"/>
</g>
<g style="fill:rgb(13.729858%,12.159729%,12.548828%);fill-opacity:1;">
  <use xlink:href="#glyph0-3" x="56.122487" y="52.0181"/>
</g>
<g style="fill:rgb(13.729858%,12.159729%,12.548828%);fill-opacity:1;">
  <use xlink:href="#glyph0-4" x="76.593137" y="52.0181"/>
</g>
<g style="fill:rgb(13.729858%,12.159729%,12.548828%);fill-opacity:1;">
  <use xlink:href="#glyph0-5" x="101.082249" y="52.0181"/>
</g>
<g style="fill:rgb(13.729858%,12.159729%,12.548828%);fill-opacity:1;">
  <use xlink:href="#glyph0-6" x="121.666281" y="52.0181"/>
</g>
<g style="fill:rgb(13.729858%,12.159729%,12.548828%);fill-opacity:1;">
  <use xlink:href="#glyph0-7" x="141.188864" y="52.0181"/>
</g>
<g style="fill:rgb(13.729858%,12.159729%,12.548828%);fill-opacity:1;">
  <use xlink:href="#glyph0-8" x="165.678014" y="52.0181"/>
</g>
<g style="fill:rgb(13.729858%,12.159729%,12.548828%);fill-opacity:1;">
  <use xlink:href="#glyph0-5" x="191.341933" y="52.0181"/>
</g>
<g style="fill:rgb(13.729858%,12.159729%,12.548828%);fill-opacity:1;">
  <use xlink:href="#glyph0-9" x="211.925966" y="52.0181"/>
</g>
<g style="fill:rgb(13.729858%,12.159729%,12.548828%);fill-opacity:1;">
  <use xlink:href="#glyph0-8" x="231.372777" y="52.0181"/>
</g>
<g style="fill:rgb(94.911194%,34.41925%,10.176086%);fill-opacity:1;">
  <use xlink:href="#glyph0-10" x="257.037" y="52.0181"/>
</g>
<g style="fill:rgb(94.911194%,34.41925%,10.176086%);fill-opacity:1;">
  <use xlink:href="#glyph0-9" x="278.417555" y="52.0181"/>
</g>
<g style="fill:rgb(94.911194%,34.41925%,10.176086%);fill-opacity:1;">
  <use xlink:href="#glyph0-11" x="297.864343" y="52.0181"/>
</g>
<g style="fill:rgb(94.911194%,34.41925%,10.176086%);fill-opacity:1;">
  <use xlink:href="#glyph0-10" x="321.670875" y="52.0181"/>
</g>
</g>
</svg>

<?xml version="1.0" encoding="UTF-8"?>
<svg width="323.47pt" height="35.031pt" version="1.1" viewBox="0 0 323.47 35.031" xmlns="http://www.w3.org/2000/svg" xmlns:xlink="http://www.w3.org/1999/xlink">
 <defs>
  <symbol id="glyph0-1" overflow="visible">
   <path d="m17.594-7.1719c0 1.1484-0.22656 2.1875-0.67188 3.125-0.4375 0.92969-1.043 1.7305-1.8125 2.4062-0.77344 0.66797-1.6719 1.1836-2.7031 1.5469-1.0234 0.36328-2.125 0.54688-3.3125 0.54688-1.4922 0-2.9023-0.22656-4.2344-0.67188-1.3242-0.45703-2.5898-1.0938-3.7969-1.9062l1.0156-1.8594c1.1445 0.76172 2.3164 1.3711 3.5156 1.8281 1.1953 0.44922 2.4258 0.67188 3.6875 0.67188 0.91406 0 1.75-0.13281 2.5-0.40625 0.75781-0.28125 1.4102-0.66016 1.9531-1.1406 0.55078-0.47656 0.96875-1.0508 1.25-1.7188 0.28906-0.67578 0.4375-1.3945 0.4375-2.1562 0-0.80078-0.13672-1.5-0.40625-2.0938-0.26172-0.59375-0.65234-1.1328-1.1719-1.625-0.51172-0.5-1.1484-0.95703-1.9062-1.375-0.76172-0.41406-1.6328-0.85156-2.6094-1.3125-1.0625-0.47656-2.0273-0.96094-2.8906-1.4531-0.85547-0.48828-1.5781-1.0352-2.1719-1.6406-0.59375-0.61328-1.0547-1.2891-1.375-2.0312-0.3125-0.75-0.46875-1.6016-0.46875-2.5625 0-1.0078 0.20312-1.9453 0.60938-2.8125 0.40625-0.875 0.97266-1.6406 1.7031-2.2969 0.73828-0.66406 1.6172-1.1875 2.6406-1.5625 1.0195-0.375 2.1484-0.5625 3.3906-0.5625 1.207 0 2.3477 0.17969 3.4219 0.53125 1.082 0.35547 2.0234 0.80859 2.8281 1.3594l-1.0156 1.7812c-0.71094-0.50781-1.5273-0.92578-2.4531-1.25-0.91797-0.33203-1.9062-0.5-2.9688-0.5-0.9375 0-1.7812 0.13672-2.5312 0.40625-0.74219 0.26172-1.3711 0.625-1.8906 1.0938-0.52344 0.46875-0.92188 1.0156-1.2031 1.6406-0.27344 0.61719-0.40625 1.2891-0.40625 2.0156 0 0.76172 0.13281 1.4297 0.40625 2 0.28125 0.5625 0.67578 1.0781 1.1875 1.5469 0.50781 0.46875 1.1133 0.90234 1.8125 1.2969 0.70703 0.38672 1.4766 0.77344 2.3125 1.1562 1.1875 0.53125 2.2344 1.0625 3.1406 1.5938 0.91406 0.52344 1.6797 1.0938 2.2969 1.7188 0.625 0.61719 1.0938 1.3047 1.4062 2.0625 0.32031 0.76172 0.48438 1.6328 0.48438 2.6094z"/>
  </symbol>
  <symbol id="glyph0-2" overflow="visible">
   <path d="m17.438-19.031c0-0.9375-0.17969-1.8281-0.53125-2.6719-0.35547-0.84375-0.875-1.5859-1.5625-2.2344-0.67969-0.64453-1.5273-1.1602-2.5469-1.5469-1.0234-0.39453-2.2031-0.59375-3.5469-0.59375-0.65625 0-1.3125 0.02734-1.9688 0.07813-0.65625 0.05469-1.2773 0.11719-1.8594 0.1875v14.031c0.5 0.04297 1.0547 0.09375 1.6719 0.15625 0.625 0.0625 1.2266 0.09375 1.8125 0.09375 1.3945 0 2.6172-0.1875 3.6719-0.5625 1.0625-0.375 1.9531-0.89062 2.6719-1.5469 0.72656-0.65625 1.2734-1.4453 1.6406-2.375 0.36328-0.92578 0.54688-1.9297 0.54688-3.0156zm2.2812-0.10938c0 1.3867-0.25 2.6641-0.75 3.8281-0.49219 1.1562-1.2031 2.1562-2.1406 3-0.9375 0.83594-2.0781 1.4844-3.4219 1.9531-1.3359 0.46094-2.8594 0.6875-4.5781 0.6875-0.5 0-1.0742-0.019531-1.7188-0.0625-0.64844-0.050781-1.2109-0.10156-1.6875-0.15625v9.8906h-2.125v-27.594c0.90625-0.125 1.8281-0.21875 2.7656-0.28125s1.9219-0.09375 2.9531-0.09375c1.8008 0 3.3672 0.24219 4.7031 0.71875 1.3438 0.48047 2.457 1.125 3.3438 1.9375 0.88281 0.80469 1.5469 1.7344 1.9844 2.7969 0.44531 1.0625 0.67188 2.1875 0.67188 3.375z"/>
  </symbol>
  <symbol id="glyph0-3" overflow="visible">
   <path d="m17.516-19.641c0-0.92578-0.17188-1.7812-0.51562-2.5625-0.34375-0.78906-0.85938-1.4688-1.5469-2.0312-0.67969-0.57031-1.5156-1.0195-2.5156-1.3438-0.99219-0.33203-2.1484-0.5-3.4688-0.5-1.3359 0-2.6719 0.11719-4.0156 0.34375v12.547c0.47656 0.05469 1.0352 0.10547 1.6719 0.15625 0.63281 0.04297 1.2422 0.0625 1.8281 0.0625 2.8008 0 4.9258-0.59766 6.375-1.7969 1.457-1.1953 2.1875-2.8203 2.1875-4.875zm1.3281 19.641-7.5781-11.297c-0.38672 0.05469-0.78125 0.09375-1.1875 0.125-0.40625 0.02344-0.82422 0.03125-1.25 0.03125-0.5 0-1.0742-0.0078-1.7188-0.03125-0.64844-0.03125-1.1992-0.07031-1.6562-0.125v11.297h-2.1562v-27.516c1.0391-0.125 2.0195-0.22656 2.9375-0.3125 0.92578-0.09375 1.9297-0.14062 3.0156-0.14062 1.7188 0 3.2344 0.20312 4.5469 0.60938 1.3125 0.39844 2.4102 0.96094 3.2969 1.6875 0.88281 0.71875 1.5508 1.5859 2 2.5938 0.45703 1.0117 0.6875 2.1211 0.6875 3.3281 0 1.8984-0.55859 3.5547-1.6719 4.9688-1.1055 1.418-2.6953 2.4297-4.7656 3.0312l8.0781 11.75z"/>
  </symbol>
  <symbol id="glyph0-4" overflow="visible">
   <path d="m15.547-30.781c0-0.72656-0.22656-1.3203-0.67188-1.7812-0.4375-0.45703-1-0.6875-1.6875-0.6875-0.65625 0-1.2109 0.23047-1.6562 0.6875-0.4375 0.46094-0.65625 1.0547-0.65625 1.7812 0 0.73047 0.21875 1.3281 0.65625 1.7969 0.44531 0.46875 1 0.70312 1.6562 0.70312 0.6875 0 1.25-0.23438 1.6875-0.70312 0.44531-0.46875 0.67188-1.0664 0.67188-1.7969zm-2.3906 6.8594-5.7344 13.609h11.453zm3.9375-6.8125c0 0.96094-0.29297 1.7891-0.875 2.4844-0.57422 0.6875-1.3438 1.1211-2.3125 1.2969l11.641 26.953h-2.2656l-3.6094-8.4844h-13.031l-3.5625 8.4844h-2.25l11.609-26.984c-0.96094-0.15625-1.7266-0.58594-2.2969-1.2969-0.57422-0.70703-0.85938-1.5234-0.85938-2.4531 0-1.0625 0.35938-1.9688 1.0781-2.7188 0.72656-0.75 1.6719-1.125 2.8281-1.125 1.1875 0 2.1328 0.375 2.8438 1.125 0.70703 0.75 1.0625 1.6562 1.0625 2.7188z"/>
  </symbol>
  <symbol id="glyph0-5" overflow="visible">
   <path d="m18.875 0-13.453-13.719v13.719h-2.125v-27.781h2.125v12.922l13-12.922h2.7344l-13.688 13.484 14.219 14.297z"/>
  </symbol>
  <symbol id="glyph0-6" overflow="visible">
   <path d="m17.703-7.6562c0-1.6953-0.72656-3.0859-2.1719-4.1719-1.4375-1.082-3.6094-1.625-6.5156-1.625h-1.7344c-0.65625 0-1.2773 0.02734-1.8594 0.07813v11.438c0.67578 0.10547 1.4102 0.1875 2.2031 0.25 0.80078 0.0625 1.5938 0.09375 2.375 0.09375 1.2695 0 2.3828-0.15625 3.3438-0.46875 0.95703-0.32031 1.7578-0.75391 2.4062-1.2969 0.64453-0.53906 1.1289-1.1758 1.4531-1.9062 0.33203-0.73828 0.5-1.5352 0.5-2.3906zm-0.64062-13.109c0-1.5938-0.60547-2.8984-1.8125-3.9219-1.1992-1.0312-3.0586-1.5469-5.5781-1.5469-1.5 0-2.918 0.11719-4.25 0.34375v10.656c0.58203 0.05469 1.1562 0.07813 1.7188 0.07813h1.7344c1.4141 0 2.6328-0.14453 3.6562-0.4375 1.0195-0.28906 1.8633-0.6875 2.5312-1.1875 0.67578-0.50781 1.1758-1.1016 1.5-1.7812 0.33203-0.6875 0.5-1.4219 0.5-2.2031zm2.8438 13.219c0 1.0117-0.21875 1.9922-0.65625 2.9375-0.42969 0.94922-1.0625 1.7812-1.9062 2.5s-1.9023 1.2969-3.1719 1.7344c-1.2617 0.42578-2.7266 0.64062-4.3906 0.64062-1.1367 0-2.2422-0.046875-3.3125-0.14062-1.0742-0.085938-2.1328-0.1875-3.1719-0.3125v-27.406c1.0391-0.125 2.0508-0.22656 3.0312-0.3125 0.98828-0.09375 2.0508-0.14062 3.1875-0.14062 1.6641 0 3.1016 0.19531 4.3125 0.57812 1.2188 0.375 2.2227 0.88672 3.0156 1.5312 0.80078 0.63672 1.3945 1.3867 1.7812 2.25 0.39453 0.85547 0.59375 1.75 0.59375 2.6875 0 1.668-0.49219 3.0586-1.4688 4.1719-0.96875 1.1172-2.4023 1.9219-4.2969 2.4219 2.2266 0.40625 3.8594 1.2344 4.8906 2.4844 1.0391 1.25 1.5625 2.7109 1.5625 4.375z"/>
  </symbol>
  <symbol id="glyph0-7" overflow="visible">
   <path d="m13.156-23.922-5.7344 13.609h11.453zm10.125 23.922-3.6094-8.4844h-13.031l-3.5625 8.4844h-2.25l12.172-28.234h0.375l12.172 28.234z"/>
  </symbol>
  <symbol id="glyph0-8" overflow="visible">
   <path d="m23.875 0.42188-18.5-23.578v23.156h-2.0781v-28.094l0.5-0.10938 18.344 23.312v-22.891h2.125v28.125z"/>
  </symbol>
  <symbol id="glyph0-9" overflow="visible">
   <path d="m3.2969 0v-27.781h15.688v1.8906h-13.562v10.844h12.25v1.8906h-12.25v11.219h13.562v1.9375z"/>
  </symbol>
  <symbol id="glyph0-10" overflow="visible">
   <path d="m12.734-25.891v25.891h-2.1562v-25.891h-9.4375v-1.8906h21v1.8906z"/>
  </symbol>
  <symbol id="glyph0-11" overflow="visible">
   <path d="m21.719 0-8.9062-12.469-8.9062 12.469h-2.5l10.266-13.984-10.125-13.797h2.5781l8.7188 12.234 8.7656-12.234h2.5l-10.078 13.75 10.234 14.031z"/>
  </symbol>
 </defs>
 <g fill="#211e1e">
  <g transform="translate(-20.338 -17.44)">
   <use x="19.2754" y="52.018101" width="100%" height="100%" xlink:href="#glyph0-1"/>
  </g>
  <g transform="translate(-20.338 -17.44)">
   <use x="36.978779" y="52.018101" width="100%" height="100%" xlink:href="#glyph0-2"/>
  </g>
  <g transform="translate(-20.338 -17.44)">
   <use x="56.122486" y="52.018101" width="100%" height="100%" xlink:href="#glyph0-3"/>
  </g>
  <g transform="translate(-20.338 -17.44)">
   <use x="76.59314" y="52.018101" width="100%" height="100%" xlink:href="#glyph0-4"/>
  </g>
  <g transform="translate(-20.338 -17.44)">
   <use x="101.08225" y="52.018101" width="100%" height="100%" xlink:href="#glyph0-5"/>
  </g>
  <g transform="translate(-20.338 -17.44)">
   <use x="121.66628" y="52.018101" width="100%" height="100%" xlink:href="#glyph0-6"/>
  </g>
  <g transform="translate(-20.338 -17.44)">
   <use x="141.18886" y="52.018101" width="100%" height="100%" xlink:href="#glyph0-7"/>
  </g>
  <g transform="translate(-20.338 -17.44)">
   <use x="165.67801" y="52.018101" width="100%" height="100%" xlink:href="#glyph0-8"/>
  </g>
  <g transform="translate(-20.338 -17.44)">
   <use x="191.34193" y="52.018101" width="100%" height="100%" xlink:href="#glyph0-5"/>
  </g>
  <g transform="translate(-20.338 -17.44)">
   <use x="211.92596" y="52.018101" width="100%" height="100%" xlink:href="#glyph0-9"/>
  </g>
  <g transform="translate(-20.338 -17.44)">
   <use x="231.37277" y="52.018101" width="100%" height="100%" xlink:href="#glyph0-8"/>
  </g>
 </g>
 <g fill="#f05719">
  <g transform="translate(-20.338 -17.44)">
   <use x="257.03699" y="52.018101" width="100%" height="100%" xlink:href="#glyph0-10"/>
  </g>
  <g transform="translate(-20.338 -17.44)">
   <use x="278.41754" y="52.018101" width="100%" height="100%" xlink:href="#glyph0-9"/>
  </g>
  <g transform="translate(-20.338 -17.44)">
   <use x="297.86435" y="52.018101" width="100%" height="100%" xlink:href="#glyph0-11"/>
  </g>
  <g transform="translate(-20.338 -17.44)">
   <use x="321.67087" y="52.018101" width="100%" height="100%" xlink:href="#glyph0-10"/>
  </g>
 </g>
</svg>
